X: 605
T: Michael Turner's Waltz
R: waltz
M: 3/4
L: 1/8
Q: 150
K: Gmaj
|:GA | "G"B2 BD"Am"cD | "G/B"d2 d2 gf | "C"e2 egfe | "G/B"d2 dBGA |"G"B2 BD"Am"cD | "G/B"d2 d2 "C"cA | 
"G/D"G2 G2 "D"F2 | "G"G4 :||: AB | "Am"c2 cdBc | "D"A2 A2 Bc | "Bm"d2 decd |
"Em"B2 B2 gf |"C"e2 efge | "G/B"d2 dBGA | "C"B2 Bc"D"AB | "G"G4 :||

